public/img/search.svg

<svg width="64" height="64" viewBox="0 0 64 64" fill="none" xmlns="http://www.w3.org/2000/svg">
<g clip-path="url(#clip0_41_45)">
<path fill-rule="evenodd" clip-rule="evenodd" d="M39.9402 44.142C36.5532 46.649 47.0852 35.879 44.0882 39.973C44.1632 39.967 44.0242 40.194 43.5582 40.763C43.5582 40.763 51.5622 48.713 55.4912 52.759C56.8552 54.234 54.3942 57.178 52.7222 55.641C49.1642 52.189 40.7452 43.61 40.7322 43.596L39.9402 44.142Z" fill="black"/>
<path d="M28.1794 48.162C33.3294 48.112 38.4274 45.979 42.0934 42.356C46.4474 38.053 48.6894 31.687 47.9074 25.609C46.5674 15.194 38.0054 8.12598 28.0514 8.12598C20.4884 8.12598 13.1384 12.857 9.9144 19.717C7.4464 24.969 7.4414 31.31 9.9144 36.571C13.1154 43.383 20.3454 48.089 27.9224 48.162C28.0084 48.162 28.0944 48.162 28.1794 48.162ZM27.9434 44.825C20.2524 44.751 13.0764 38.803 11.6494 31.177C10.6434 25.801 12.5424 19.983 16.4984 16.165C21.1164 11.706 28.3754 10.213 34.4114 12.74C39.8114 15.001 43.8534 20.251 44.5984 26.035C45.2364 30.993 43.4574 36.189 39.9614 39.768C36.8944 42.908 32.5934 44.782 28.1584 44.825C28.0864 44.825 28.0154 44.825 27.9434 44.825Z" fill="black"/>
</g>
<defs>
<clipPath id="clip0_41_45">
<rect width="64" height="64" fill="white"/>
</clipPath>
</defs>
</svg>

<?xml version="1.0" encoding="UTF-8" standalone="no"?><!DOCTYPE svg PUBLIC "-//W3C//DTD SVG 1.1//EN" "http://www.w3.org/Graphics/SVG/1.1/DTD/svg11.dtd"><svg width="100%" height="100%" viewBox="0 0 64 64" version="1.1" xmlns="http://www.w3.org/2000/svg" xmlns:xlink="http://www.w3.org/1999/xlink" xml:space="preserve" xmlns:serif="http://www.serif.com/" style="fill-rule:evenodd;clip-rule:evenodd;stroke-linejoin:round;stroke-miterlimit:2;"><rect id="Icons" x="-640" y="-128" width="1280" height="800" style="fill:none;"/><g id="Icons1" serif:id="Icons"><g id="Strike"></g><g id="H1"></g><g id="H2"></g><g id="H3"></g><g id="list-ul"></g><g id="hamburger-1"></g><g id="hamburger-2"></g><g id="list-ol"></g><g id="list-task"></g><g id="trash"></g><g id="vertical-menu"></g><g id="horizontal-menu"></g><g id="sidebar-2"></g><g id="Pen"></g><g id="Pen1" serif:id="Pen"></g><g id="clock"></g><g id="external-link"></g><g id="hr"></g><g id="info"></g><g id="warning"></g><g id="plus-circle"></g><g id="minus-circle"></g><g id="vue"></g><g id="cog"></g><g id="logo"></g><g id="eye-slash"></g><g id="eye"></g><g id="toggle-off"></g><g id="shredder"></g><path d="M39.94,44.142c-3.387,2.507 7.145,-8.263 4.148,-4.169c0.075,-0.006 -0.064,0.221 -0.53,0.79c0,0 8.004,7.95 11.933,11.996c1.364,1.475 -1.097,4.419 -2.769,2.882c-3.558,-3.452 -11.977,-12.031 -11.99,-12.045l-0.792,0.546Z"/><path d="M28.179,48.162c5.15,-0.05 10.248,-2.183 13.914,-5.806c4.354,-4.303 6.596,-10.669 5.814,-16.747c-1.34,-10.415 -9.902,-17.483 -19.856,-17.483c-7.563,0 -14.913,4.731 -18.137,11.591c-2.468,5.252 -2.473,11.593 0,16.854c3.201,6.812 10.431,11.518 18.008,11.591c0.086,0 0.172,0 0.257,0Zm-0.236,-3.337c-7.691,-0.074 -14.867,-6.022 -16.294,-13.648c-1.006,-5.376 0.893,-11.194 4.849,-15.012c4.618,-4.459 11.877,-5.952 17.913,-3.425c5.4,2.261 9.442,7.511 10.187,13.295c0.638,4.958 -1.141,10.154 -4.637,13.733c-3.067,3.14 -7.368,5.014 -11.803,5.057c-0.072,0 -0.143,0 -0.215,0Z" style="fill-rule:nonzero;"/><g id="spinner--loading--dots-" serif:id="spinner [loading, dots]"></g><g id="react"></g></g></svg>
